static/img/svg/bxs-building.svg

<svg xmlns="http://www.w3.org/2000/svg" width="24" height="24" viewBox="0 0 24 24"><path d="M10,19h4v3h5V4c0-1.104-0.896-2-2-2H7C5.896,2,5,2.896,5,4v18h5V19z M13,6h3v2h-3V6z M13,10h3v2h-3V10z M13,14h3v2h-3V14z M8,6h3v2H8V6z M8,10h3v2H8V10z M8,14h3v2H8V14z"/></svg>

<svg xmlns="http://www.w3.org/2000/svg" width="24" height="24" viewBox="0 0 24 24"><path d="M17,2H7C5.896,2,5,2.896,5,4v18h5h4h5V4C19,2.896,18.104,2,17,2z M11,16H8v-2h3V16z M11,12H8v-2h3V12z M11,8H8V6h3V8z M16,16h-3v-2h3V16z M16,12h-3v-2h3V12z M16,8h-3V6h3V8z"/></svg>
